findly-builder/apps/searchassist/src/assets/icons/ie_logo.svg

<svg width="28" height="25" viewBox="0 0 28 25" fill="none" xmlns="http://www.w3.org/2000/svg">
<path d="M17.4795 4.37461C18.0999 4.01003 20.4688 2.65586 22.4429 2.65586C26.1654 2.65586 24.4169 6.66628 24.4169 6.66628L24.5297 6.77045C26.673 1.71836 22.5557 2.08295 22.5557 2.08295C20.2432 2.08295 17.3103 3.85378 16.6899 4.27045C16.1258 4.21836 15.5618 4.16628 14.9414 4.16628C6.36828 4.16628 5.07103 10.2079 4.90183 11.9788C4.84543 12.2392 4.84543 12.3954 4.84543 12.3954C4.84543 12.4475 4.84543 12.4996 4.84543 12.4996C4.84543 12.4475 4.84543 12.3954 4.84543 12.3434C8.28595 7.81211 13.0237 5.9892 13.0237 5.9892V6.3017C5.97347 10.7288 4.28141 17.2913 3.88659 18.5934C3.43537 19.9475 3.71738 22.9163 6.70669 22.9163C9.696 22.9163 12.5725 20.7288 12.5725 20.7288C12.5725 20.7288 13.2493 20.8329 14.9978 20.8329C22.4429 20.8329 24.4169 14.5829 24.4169 14.5829H17.8179C17.8179 14.5829 17.1411 16.6663 14.7722 16.6663C11.5009 16.6663 11.6137 13.5413 11.6137 13.5413H24.5861C24.8117 10.6767 23.9657 8.69753 22.7249 7.34336C21.7096 5.9892 20.074 4.84336 17.4795 4.37461ZM12.1777 20.6246C12.1777 20.6246 7.77833 23.1767 5.74786 21.4059C4.67622 19.635 6.42468 17.135 6.42468 17.135C6.42468 17.135 7.77833 19.6871 12.1777 20.6246ZM11.5009 5.3642C11.5009 5.3642 11.4445 5.3642 11.5009 5.3642V5.3642ZM11.6137 10.9371C11.6137 10.9371 11.5573 8.33295 14.7158 8.33295C17.7615 8.33295 17.8179 10.9371 17.8179 10.9371H11.6137Z" fill="#29B6F6"/>
</svg>

<svg width="28" height="25" fill="none" xmlns="http://www.w3.org/2000/svg"><path d="M17.48 4.375c.62-.365 2.989-1.72 4.963-1.72 3.722 0 1.974 4.011 1.974 4.011l.113.104c2.143-5.052-1.974-4.687-1.974-4.687-2.313 0-5.246 1.77-5.866 2.187a18.48 18.48 0 0 0-1.749-.104c-8.573 0-9.87 6.042-10.04 7.813-.056.26-.056.416-.056.416v.105-.157c3.441-4.53 8.179-6.354 8.179-6.354v.313c-7.05 4.427-8.743 10.99-9.137 12.291-.452 1.355-.17 4.323 2.82 4.323 2.989 0 5.865-2.187 5.865-2.187s.677.104 2.426.104c7.445 0 9.419-6.25 9.419-6.25h-6.6s-.676 2.083-3.045 2.083c-3.271 0-3.158-3.125-3.158-3.125h12.972c.226-2.864-.62-4.843-1.861-6.198-1.015-1.354-2.651-2.5-5.245-2.968Zm-5.302 16.25s-4.4 2.552-6.43.78c-1.072-1.77.677-4.27.677-4.27s1.353 2.552 5.753 3.49ZM11.5 5.365s-.056 0 0 0Zm.113 5.572s-.057-2.604 3.102-2.604c3.046 0 3.102 2.604 3.102 2.604h-6.204Z" fill="#29B6F6"/></svg>
